X: 19
T: Pollonesse #19
M: 3/4
L: 1/16
K: F
Q:120
F4 A2c2 G2B2|A4 c2f2 e2g2|f4 b2a2 g2f2|edcB A4G4|
F4A2c2 G2B2|A4 c2f2 e2g2|f4b2a2 g2f2|e2dc f8:|
f2c2 c2c2 cdef|g2B2 A4B4|A2G2 F2G2 A2B2| c4c2d2 e2c2|
f2c2 c2c2 cdef|g2B2 A4B4|B2A2 G2F2 E2C2|[C4F4][C8F8]:|

